flaticon/essential/hide.svg

<svg xmlns="http://www.w3.org/2000/svg" width="32" height="32" viewBox="0 0 24 24">
    <path d="M4.585938 16.824219C4.660156 16.882812 4.75 16.910156 4.839844 16.910156 4.960938 16.910156 5.078125 16.859375 5.15625 16.757812 5.296875 16.582031 5.269531 16.328125 5.09375 16.1875 4.769531 15.925781 4.453125 15.644531 4.15625 15.351562L1.148438 12.34375 4.25 9.242188C7.230469 6.261719 11.566406 5.246094 15.566406 6.585938 15.777344 6.65625 16.007812 6.542969 16.082031 6.332031 16.152344 6.117188 16.039062 5.886719 15.824219 5.816406 11.53125 4.375 6.875 5.46875 3.675781 8.667969L0 12.34375 3.582031 15.925781C3.898438 16.242188 4.238281 16.542969 4.585938 16.824219zM20.417969 8.667969C19.871094 8.121094 19.269531 7.625 18.632812 7.199219 18.445312 7.074219 18.191406 7.121094 18.070312 7.308594 17.941406 7.496094 17.992188 7.746094 18.179688 7.871094 18.773438 8.269531 19.332031 8.730469 19.84375 9.242188L22.851562 12.25 19.75 15.351562C16.746094 18.351562 12.226562 19.367188 8.226562 17.933594 8.015625 17.855469 7.78125 17.96875 7.707031 18.179688 7.628906 18.390625 7.742188 18.621094 7.953125 18.699219 9.246094 19.160156 10.589844 19.386719 11.925781 19.386719 15.023438 19.386719 18.070312 18.175781 20.324219 15.925781L24 12.25zM20.417969 8.667969"/>
    <path d="M12.414062 16.980469C11.539062 16.980469 10.683594 16.734375 9.945312 16.277344 9.753906 16.15625 9.503906 16.214844 9.386719 16.40625 9.265625 16.597656 9.324219 16.847656 9.515625 16.964844 10.382812 17.507812 11.386719 17.792969 12.414062 17.792969 15.4375 17.792969 17.898438 15.332031 17.898438 12.304688 17.898438 11.214844 17.578125 10.160156 16.976562 9.253906 16.847656 9.070312 16.597656 9.019531 16.410156 9.144531 16.222656 9.269531 16.175781 9.519531 16.300781 9.707031 16.8125 10.476562 17.085938 11.375 17.085938 12.304688 17.085938 14.882812 14.988281 16.980469 12.414062 16.980469zM12.414062 7.628906C13.25 7.628906 14.074219 7.855469 14.792969 8.28125 14.984375 8.394531 15.234375 8.332031 15.347656 8.136719 15.464844 7.945312 15.398438 7.695312 15.207031 7.582031 14.363281 7.082031 13.398438 6.816406 12.410156 6.816406 9.386719 6.816406 6.925781 9.277344 6.925781 12.304688 6.925781 13.152344 7.113281 13.964844 7.484375 14.71875 7.554688 14.863281 7.699219 14.945312 7.847656 14.945312 7.910156 14.945312 7.96875 14.933594 8.027344 14.90625 8.230469 14.804688 8.3125 14.5625 8.214844 14.363281 7.898438 13.71875 7.738281 13.027344 7.738281 12.304688 7.738281 9.726562 9.835938 7.628906 12.414062 7.628906zM22.199219 2.261719C22.042969 2.105469 21.785156 2.105469 21.625 2.261719L2.726562 21.164062C2.566406 21.320312 2.566406 21.578125 2.726562 21.738281 2.804688 21.816406 2.910156 21.855469 3.011719 21.855469 3.117188 21.855469 3.222656 21.816406 3.300781 21.738281L22.199219 2.835938C22.359375 2.679688 22.359375 2.421875 22.199219 2.261719zM22.199219 2.261719"/>
</svg>

<svg xmlns="http://www.w3.org/2000/svg" width="32" height="32" viewBox="0 0 24 24">
    <path d="M4.586 16.824a.407.407 0 0 0 .254.086c.12 0 .238-.05.316-.152a.404.404 0 0 0-.062-.57c-.324-.262-.64-.543-.938-.836l-3.008-3.008L4.25 9.242c2.98-2.98 7.316-3.996 11.316-2.656a.41.41 0 0 0 .516-.254.406.406 0 0 0-.258-.516A11.78 11.78 0 0 0 3.676 8.668L0 12.344l3.582 3.582c.316.316.656.617 1.004.898zm0 0M20.418 8.668a11.857 11.857 0 0 0-1.785-1.469.403.403 0 0 0-.563.11.4.4 0 0 0 .11.562c.593.399 1.152.86 1.664 1.371l3.008 3.008-3.102 3.102a11.082 11.082 0 0 1-11.523 2.582.406.406 0 1 0-.273.766 11.901 11.901 0 0 0 12.371-2.773L24 12.249zm0 0"/>
    <path d="M12.414 16.98c-.875 0-1.73-.246-2.469-.703a.401.401 0 0 0-.558.13.401.401 0 0 0 .129.558 5.457 5.457 0 0 0 2.898.828 5.492 5.492 0 0 0 4.563-8.54.412.412 0 0 0-.567-.108.403.403 0 0 0-.11.562 4.679 4.679 0 0 1-3.886 7.273zm0 0M12.414 7.629c.836 0 1.66.226 2.379.652.191.114.441.051.555-.144a.403.403 0 0 0-.141-.555 5.483 5.483 0 0 0-2.797-.766 5.492 5.492 0 0 0-4.926 7.903.414.414 0 0 0 .543.188.407.407 0 0 0 .188-.544 4.681 4.681 0 0 1 4.2-6.734zm0 0M22.2 2.262a.41.41 0 0 0-.575 0L2.727 21.164a.403.403 0 0 0 .285.691c.105 0 .21-.039.289-.117L22.199 2.836a.403.403 0 0 0 0-.574zm0 0"/>
</svg>
